X:1
T:Title
%%score { ( 1 3 ) | ( 2 4 ) }
L:1/8
Q:1/4=106
M:4/4
K:C
V:1 treble nm="Grand Piano"
V:3 treble 
V:2 bass 
V:4 bass 
V:1
 [EG]3 [EG] [EG][EG][_E^F][=FA] | [EG]6 z2 | E3 E EEFE |[M:3/4] [B,D]6 |[M:1/4] DE |[M:4/4] F6 z2 | %6
w: J.~H.~Tenney * * * * *||||||
 E6[K:bass] z2 | [EG]3 [EG] [EG][EG][_E^F][=FA] | [EG]6 z2 | [Ec]3 [GB] [Fd][Ac][GB][FA] | %10
w: ||||
 [EG]6 z2 | B6 z2 | c6[K:bass] z2 | d2 d>d d2 [Gc]d | e>e e>d [Ec]4 | %15
w: |||||
 d2 B>B [Bd]>[Ac] [GB]>[C^FA] | G6 z2 | [EG]2 [FA]>[EG] [CE]2 [EG]>[EG] | %18
w: |||
 [FA]>[GB] [Ac][Ad] [^Ge]4 | [Ad]2 d>d d2 [Gc][Ad] | e>e e>d [Ec]4 |] %21
w: |||
V:2
 [C,C]3 [C,C] [C,C][C,C][C,C][C,C] | [C,C]>C, C,C, C,2 z2 | %2
 [C,G,C]3 [C,G,C] [C,G,C][C,G,C][C,A,C][C,G,C] |[M:3/4] G,>G, G,G, G,2 |[M:1/4] B,C | %5
[M:4/4] D6[K:treble] z2 | C6[K:bass] z2 | [C,C]3 [C,C] [C,C][C,C][C,C][C,C] | %8
 [C,C]>C, C,C, C,2 z2 | [C,G,]3 [E,G,] [F,A,][F,C][F,C][F,C] | [C,C]>C, C,C, C,2[K:treble] EE | %11
 D6 FF | E6[K:bass] z2 | [G,B,G]2 [G,B,G]>[G,B,G] [G,B,G]2 [E,C][G,B,G] | %14
 [CG]>[CG] [CG]>[G,B,F][K:bass] [C,C]4 | [G,B,G]2 [G,DG]>[G,DG][K:bass] [D,D]>[D,D] [D,D]>D, | %16
 G,2 F,2 E,2 D,2 | [C,C]2 [C,C]>[C,C] [C,G,]2 [C,C]>[C,C] | [F,C]>[F,C] [F,C][F,A,] [E,B,]4 | %19
 [F,A,]2 [F,A,F]>[F,A,F] [F,A,F]2 [E,C][F,C] | [G,CG]>[G,CG] [G,CG]>[G,B,F][K:bass] [C,C]4 |] %21
V:3
 x8 | z z/ C/ CC C2 z2 | x8 |[M:3/4] x6 |[M:1/4] x2 |[M:4/4] z2 B,>B, B,2 AG | %6
 z2[K:bass] G,>G, G,2 z2 | x8 | z z/ C/ CC C2 z2 | x8 | z z/ C/ CC C2 Gc | z2 G,>G, G,2 AB | %12
 z2[K:bass] G,>G, G,2 z2 | x8 | x8 | x8 | B,4 C2 [B,FG]2 | x8 | x8 | x8 | x8 |] %21
V:4
 x8 | x8 | x8 |[M:3/4] x6 |[M:1/4] x2 |[M:4/4] z2 G,>G, G,2[K:treble] FE | %6
 z2[K:bass] C,>C, C,2 z2 | x8 | x8 | x8 | x6[K:treble] x2 | x8 | z2[K:bass] C,>C, C,2 z2 | x8 | %14
 x4[K:bass] x4 | x4[K:bass] x4 | x8 | x8 | x8 | x8 | x4[K:bass] x4 |] %21

